X:1
T:Spanish Lady (2)
M:4/4
L:1/4
K:G
 D/2| D D DE/2-F/2| G G G/2 A/2- B| c A B G| E D D2| D D/2D/2 D E/2F/2|\
 G GG/2-A/2 B| c A/2A/2 B G| E D D2| B d d B| A G GA/2-B/2| c A B G|\
 E D D2| D D/2D/2 D E| G GG/2-A/2 B| cA/2-A/2 B G| E D D2| D D/2D/2 D E|\
 G GG/2-A/2 B| c A/2A/2 B G| E D D3/2||
